X:1
T:Title
%%score { ( 1 4 ) | ( 2 3 ) }
L:1/8
M:4/4
K:D
V:1 treble nm="Grand Piano"
V:4 treble 
V:2 bass 
V:3 bass 
V:1
 z4 z2[Q:1/4=100] [DF][EG] | [FA]2 [Fd]2 [Fd]2 DE | F2 B2 A2 [EG][DF] | %3
 [CE]2 [CE][DF] [EG]2 [CA]2 |[M:3/4] A4 F2 |[M:1/4] F[EG] |[M:4/4] [FA]2 [Fd]2 [Fd]2 DE | %7
 F2 B2 A2 GF | E2 c2 c2 B2 |[M:3/4] [A,CA]6 |[M:1/4] AA |[M:4/4] .G2 A,A, [Gc][Gc][GB][Gc] | %12
 [Fd]6 z2 | [GB]2 [Gd]2 [Fd][Fe][Gd][DF] | [CE]6 [A,DF][A,EG] | [DFA]2 [Fd]2 [Fd]2 DE | %16
[M:9/8] F2 B- B A2- A[FA][FA] |[M:4/4] BBee dd[Ec][Gc] |[M:3/4] [Fd]6 |] %19
V:2
 z4 z2 [D,A,][D,A,] | [D,D]2 [D,A,]2 [D,A,]2 [D,F,][D,G,D] | %2
 [D,A,D]2 [D,G,D]2 [D,F,D]2 [D,A,][D,A,] | [A,,A,]2 [A,,A,]2 [A,,A,]2 [A,,E,]2 | %4
[M:3/4] [D,D]4- [D,A,D]2 |[M:1/4] [D,A,D][D,A,] |[M:4/4] [D,D]2 [D,A,]2 [D,A,]2 [D,F,][D,G,D] | %7
 [D,A,D]2 [D,G,D]2 [D,F,D]2 [D,A,E][D,A,D] | [E,A,C]2 [E,A,E]2 [E,A,E]2 [E,^G,D]2 |[M:3/4] A,,6 | %10
[M:1/4] CC |[M:4/4] z .E3 z4 | [D,A,]2 D,D, D,2 [D,D][D,D] | %13
 [G,D]2 [G,B,]2 [D,A,][D,A,][D,A,][D,A,] | z4 A,2 z2 | D,2 [D,A,]2 [D,A,]2 [D,F,][D,G,D] | %16
[M:9/8] [D,A,D]2 [D,G,D]- [D,G,D] [D,F,D]2- [D,F,D][D,D][D,D] | %17
[M:4/4][K:treble] [G,DG][G,DG][G,B,G][G,B,G] [A,F][A,F][K:bass][A,,A,][A,,A,] |[M:3/4] [D,A,]6 |] %19
V:3
 x8 | x8 | x8 | x8 |[M:3/4] F,4 z2 |[M:1/4] x2 |[M:4/4] x8 | x8 | x8 |[M:3/4] x6 |[M:1/4] x2 | %11
[M:4/4] .E2 A,,A,, [A,,A,][A,,A,][A,,A,][A,,A,] | x8 | x8 | [A,,A,]2 A,A, z G,F,E, | x8 | %16
[M:9/8] x9 |[M:4/4][K:treble] x6[K:bass] x2 |[M:3/4] x6 |] %19
V:4
 x8 | x8 | x8 | x8 |[M:3/4] x6 |[M:1/4] x2 |[M:4/4] x8 | x8 | x8 |[M:3/4] x6 |[M:1/4] x2 | %11
[M:4/4] z .G3 z4 | z2 A,A, A,2 [FA][FA] | x8 | x8 | x8 |[M:9/8] x9 |[M:4/4] x8 |[M:3/4] x6 |] %19

